packages/icons/src/components/Icon/assets/default/passkey.svg

<svg width="20" height="20" viewBox="0 0 20 20" fill="none" xmlns="http://www.w3.org/2000/svg">
<path d="M8.36685 10C11.348 10 13.8947 11.8636 14.904 14.4893C15.0991 14.997 14.9251 15.5665 14.4958 15.9004C12.8026 17.2163 10.6744 18 8.36392 18C6.05597 17.9999 3.93021 17.2177 2.23795 15.9043C1.80842 15.5707 1.63493 15.001 1.82974 14.4932C2.83796 11.8656 5.38447 10.0002 8.36685 10Z" />
<path fill-rule="evenodd" clip-rule="evenodd" d="M13.4303 2.80275C14.533 1.73252 16.3209 1.73231 17.4235 2.80275C18.5259 3.87321 18.5258 5.60918 17.4235 6.6797C17.2693 6.82944 17.1008 6.95857 16.9235 7.06642V8.96095C16.9235 9.05169 16.887 9.13893 16.821 9.20314L15.9254 10.0723L16.6745 10.7988C16.8122 10.9326 16.8121 11.1494 16.6745 11.2832L15.6764 12.2529C15.5386 12.3868 15.3143 12.3868 15.1764 12.2529L14.0329 11.1416C13.9667 11.0774 13.9294 10.9902 13.9294 10.8994V7.06642C13.7521 6.95861 13.5845 6.82937 13.4303 6.6797C12.3277 5.60916 12.3277 3.8733 13.4303 2.80275ZM16.4245 3.77248C15.8731 3.23721 14.9797 3.2372 14.4284 3.77248C14.2217 3.97321 14.2216 4.29833 14.4284 4.49904C14.6351 4.69963 14.9697 4.69953 15.1764 4.49904C15.3143 4.36522 15.5386 4.36522 15.6764 4.49904C15.8831 4.69956 16.2178 4.6996 16.4245 4.49904C16.6312 4.29831 16.6312 3.97321 16.4245 3.77248Z" />
<path d="M8.36392 2.00002C10.0208 2.00002 11.3639 3.3432 11.3639 5.00002C11.3639 6.65687 10.0208 8.00002 8.36392 8.00002C6.70718 7.99988 5.36392 6.65679 5.36392 5.00002C5.36396 3.34328 6.70721 2.00015 8.36392 2.00002Z" />
</svg>

<svg xmlns="http://www.w3.org/2000/svg" width="20" height="20" fill="none" viewBox="0 0 20 20">
    <path d="M8.367 10a7 7 0 0 1 6.537 4.49 1.23 1.23 0 0 1-.408 1.41A9.96 9.96 0 0 1 8.364 18a9.96 9.96 0 0 1-6.126-2.096 1.23 1.23 0 0 1-.408-1.41A7 7 0 0 1 8.367 10"/>
    <path d="M13.43 2.803a2.884 2.884 0 0 1 3.994 0 2.686 2.686 0 0 1 0 3.877q-.234.225-.5.386v1.895c0 .09-.037.178-.103.242l-.896.87.75.726a.336.336 0 0 1 0 .484l-.999.97a.36.36 0 0 1-.5 0l-1.143-1.111a.34.34 0 0 1-.104-.243V7.066a2.8 2.8 0 0 1-.499-.386 2.685 2.685 0 0 1 0-3.877m2.994.97a1.44 1.44 0 0 0-1.996 0 .503.503 0 0 0 0 .726c.207.2.542.2.748 0a.36.36 0 0 1 .5 0c.207.2.542.2.748 0a.503.503 0 0 0 0-.727" clip-rule="evenodd"/>
    <path d="M8.364 2a3 3 0 1 1 0 6 3 3 0 0 1 0-6"/>
</svg>
